icons/lockup-github-24.svg

<svg width="103" height="24" viewBox="0 0 103 24" fill="none" xmlns="http://www.w3.org/2000/svg">
<path d="M36.4719 3.08808C40.6968 3.08808 43.2493 4.89258 44.0635 7.92926L40.2788 8.83146C39.8166 7.18109 38.4963 6.27887 36.4719 6.27887C33.4572 6.27887 31.8288 8.25923 31.8288 12.022C31.8288 15.7848 33.4132 17.8094 36.3838 17.8094C38.8861 17.8094 40.463 16.403 40.7074 13.9804H36.0758V10.8118H44.5258V12.8142C44.5258 18.0734 41.467 21 36.3179 21C31.2127 21 28 17.5012 28 12.022C28 6.54284 31.2788 3.08808 36.4719 3.08808Z" fill="#010409"/>
<path d="M79.6196 15.741C79.6197 17.2593 80.3019 18.0956 81.6002 18.0956C83.0965 18.0956 84.2409 16.7091 84.2409 14.8167V8.30323H87.7395V20.6701H84.2409V18.5795C83.5807 19.9218 81.9963 20.89 80.3019 20.89C77.5953 20.89 76.121 19.3937 76.121 16.6651V8.30323H79.6196V15.741Z" fill="#010409"/>
<path fill-rule="evenodd" clip-rule="evenodd" d="M93.0625 10.5697C93.7747 9.07338 95.3812 8.0171 97.0015 8.0171C100.376 8.01711 102.159 10.3497 102.04 14.4646C102.159 18.5355 100.31 20.89 97.0015 20.89C95.3151 20.89 93.7748 19.9218 93.0406 18.5355V20.6701H89.5637V3.41825H93.0625V10.5697ZM95.7691 10.9439C94.3249 10.9439 93.1806 12.3523 93.0625 14.2887V14.4868C93.1806 16.4891 94.3249 17.9634 95.7691 17.9635C97.5816 17.9635 98.5719 16.6211 98.4538 14.4646C98.5719 12.2862 97.5816 10.9439 95.7691 10.9439Z" fill="#010409"/>
<path d="M49.3227 20.6701H45.846V8.30323H49.3227V20.6701Z" fill="#010409"/>
<path d="M56.3272 8.30323H58.902V11.2079H56.3272V16.8192C56.3272 17.5013 56.6354 17.7654 57.3175 17.7654H58.902V20.6701H56.0633C53.7527 20.6701 52.8506 19.6797 52.8506 17.5892V11.2079H50.65V8.30323H52.8506V5.83872L56.3272 5.02459V8.30323Z" fill="#010409"/>
<path d="M64.11 3.41825V10.4157H70.6675V3.41825H74.4084V20.6701H70.6675V13.7605H64.11V20.6701H60.3693V3.41825H64.11Z" fill="#010409"/>
<path d="M47.5844 3C48.7507 3.00004 49.6528 3.90239 49.6528 5.06863C49.6528 6.23483 48.7506 7.137 47.5844 7.13703C46.4182 7.13703 45.5159 6.23485 45.5158 5.06863C45.5158 3.90237 46.4182 3 47.5844 3Z" fill="#010409"/>
<path d="M10.2256 17.2842C7.26074 16.9248 5.17188 14.791 5.17188 12.0283C5.17188 10.9053 5.57617 9.69238 6.25 8.88379C5.95801 8.14258 6.00293 6.57031 6.33984 5.91895C7.23828 5.80664 8.45117 6.27832 9.16992 6.92969C10.0234 6.66016 10.9219 6.52539 12.0225 6.52539C13.123 6.52539 14.0215 6.66016 14.8301 6.90723C15.5264 6.27832 16.7617 5.80664 17.6602 5.91895C17.9746 6.52539 18.0195 8.09766 17.7275 8.86133C18.4463 9.71484 18.8281 10.8604 18.8281 12.0283C18.8281 14.791 16.7393 16.8799 13.7295 17.2617C14.4932 17.7559 15.0098 18.834 15.0098 20.0693V22.4053C15.0098 23.0791 15.5713 23.4609 16.2451 23.1914C20.3105 21.6416 23.5 17.5762 23.5 12.5449C23.5 6.18848 18.334 1 11.9775 1C5.62109 1 0.5 6.18848 0.5 12.5449C0.5 17.5312 3.66699 21.6641 7.93457 23.2139C8.54102 23.4385 9.125 23.0342 9.125 22.4277V20.6309C8.81055 20.7656 8.40625 20.8555 8.04688 20.8555C6.56445 20.8555 5.68848 20.0469 5.05957 18.542C4.8125 17.9355 4.54297 17.5762 4.02637 17.5088C3.75684 17.4863 3.66699 17.374 3.66699 17.2393C3.66699 16.9697 4.11621 16.7676 4.56543 16.7676C5.2168 16.7676 5.77832 17.1719 6.3623 18.0029C6.81152 18.6543 7.2832 18.9463 7.84473 18.9463C8.40625 18.9463 8.76562 18.7441 9.28223 18.2275C9.66406 17.8457 9.95605 17.5088 10.2256 17.2842Z" fill="#010409"/>
</svg>

<svg xmlns="http://www.w3.org/2000/svg" width="103" height="24" viewBox="0 0 103 24"><path d="M36.472 3.088c4.225 0 6.777 1.805 7.591 4.841l-3.784.902c-.462-1.65-1.783-2.552-3.807-2.552-3.015 0-4.643 1.98-4.643 5.743s1.584 5.787 4.555 5.787c2.502 0 4.079-1.406 4.323-3.829h-4.631v-3.168h8.45v2.002c0 5.259-3.059 8.186-8.208 8.186C31.213 21 28 17.501 28 12.022s3.279-8.934 8.472-8.934M79.62 15.741c0 1.518.682 2.355 1.98 2.355 1.497 0 2.641-1.387 2.641-3.279V8.303h3.499V20.67h-3.499v-2.091c-.66 1.343-2.245 2.311-3.939 2.311-2.707 0-4.181-1.496-4.181-4.225V8.303h3.499zm13.442-5.171c.713-1.497 2.319-2.553 3.94-2.553 3.374 0 5.157 2.333 5.038 6.448.119 4.07-1.73 6.425-5.038 6.425-1.687 0-3.227-.968-3.961-2.355v2.135h-3.477V3.418h3.498Zm2.707.374c-1.444 0-2.588 1.408-2.707 3.345v.198c.119 2.002 1.263 3.476 2.707 3.476 1.813 0 2.803-1.342 2.685-3.498.118-2.179-.872-3.521-2.685-3.521M49.323 20.67h-3.477V8.303h3.477zm7.004-12.367h2.575v2.905h-2.575v5.611c0 .682.308.946.991.946h1.584v2.905h-2.839c-2.31 0-3.212-.99-3.212-3.081v-6.381H50.65V8.303h2.201V5.839l3.476-.814zm7.783-4.885v6.998h6.558V3.418h3.74V20.67h-3.74v-6.909H64.11v6.909h-3.741V3.418zM47.584 3c1.167 0 2.069.902 2.069 2.069a2.04 2.04 0 0 1-2.069 2.068 2.04 2.04 0 0 1-2.068-2.068c0-1.167.902-2.069 2.068-2.069M10.226 17.284c-2.965-.359-5.054-2.493-5.054-5.256 0-1.123.404-2.336 1.078-3.144-.292-.741-.247-2.314.09-2.965.898-.112 2.111.359 2.83 1.011.853-.27 1.752-.405 2.853-.405 1.1 0 1.998.135 2.807.382.696-.629 1.932-1.1 2.83-.988.315.606.36 2.179.067 2.942.719.854 1.101 1.999 1.101 3.167 0 2.763-2.089 4.852-5.099 5.234.764.494 1.281 1.572 1.281 2.807v2.336c0 .674.561 1.056 1.235.786 4.066-1.549 7.255-5.615 7.255-10.646C23.5 6.188 18.334 1 11.977 1S.5 6.188.5 12.545c0 4.986 3.167 9.119 7.435 10.669.606.225 1.19-.18 1.19-.786v-1.797a2.9 2.9 0 0 1-1.078.224c-1.483 0-2.359-.808-2.987-2.313-.248-.606-.517-.966-1.034-1.033-.269-.023-.359-.135-.359-.27 0-.269.449-.471.898-.471.652 0 1.213.404 1.797 1.235.45.651.921.943 1.483.943.561 0 .921-.202 1.437-.719.382-.381.674-.718.944-.943"/></svg>
